X: 69
T: 65. QUADRILLE
B: Sam Bayard, "Hill Country Tunes" 1944 #65
S: Played by Robert Crow, Claysville, PA, Sept 13, 1943.  Learned in that region.
R: reel
M: 4/4
L: 1/8
Z: 2010 John Chambers <jc:trillian.mit.edu>
K: G
[d2D2]ef gafe | d2[B2D2] [g2B2]z2 | [d2D2]ef gfga | b2a2 e2z2 |
d2ef gafe | d2B2 [g2B2]e2 | d2c2 ((3BcB) AG | FFAF [B2G2]z2 ||
D2GD "a."GBAG | E2E2 EGFE | D2G2 "b."GABc | d2.[c2-E2] .[c2-E2]e2- |
e2d2 egfe | d2c2 ((3BcB)A2 | D2"c."FA AFAc | BAFA G2z2 |]
P: Var:
"a."[BD]GAG || "b."[BD]GBc || "c."AA |] y8 y8 y8 y8

%%sep 2 1 500
%%sep 1 1 500

